parts/orig/scan300dpi/startt0001a.svg

<?xml version="1.0" encoding="UTF-8" standalone="no"?>
<!-- Created with Inkscape (http://www.inkscape.org/) -->

<svg
   xmlns:dc="http://purl.org/dc/elements/1.1/"
   xmlns:cc="http://creativecommons.org/ns#"
   xmlns:rdf="http://www.w3.org/1999/02/22-rdf-syntax-ns#"
   xmlns:svg="http://www.w3.org/2000/svg"
   xmlns="http://www.w3.org/2000/svg"
   xmlns:xlink="http://www.w3.org/1999/xlink"
   xmlns:sodipodi="http://sodipodi.sourceforge.net/DTD/sodipodi-0.dtd"
   xmlns:inkscape="http://www.inkscape.org/namespaces/inkscape"
   version="1.1"
   id="svg2"
   width="215.22267mm"
   height="296.07935mm"
   viewBox="0 0 813.44 1119.04"
   sodipodi:docname="startt0001a.svg"
   inkscape:version="0.92.1 unknown">
  <metadata
     id="metadata8">
    <rdf:RDF>
      <cc:Work
         rdf:about="">
        <dc:format>image/svg+xml</dc:format>
        <dc:type
           rdf:resource="http://purl.org/dc/dcmitype/StillImage" />
        <dc:title />
      </cc:Work>
    </rdf:RDF>
  </metadata>
  <defs
     id="defs6">
    <clipPath
       clipPathUnits="userSpaceOnUse"
       id="clipPath29">
      <rect
         style="opacity:0.9;fill:#ffff00;fill-opacity:0.53082192;stroke:#0000ff;stroke-width:0.75590551;stroke-linecap:square;stroke-linejoin:miter;stroke-miterlimit:4;stroke-dasharray:none;stroke-opacity:1"
         id="rect31"
         width="482.46753"
         height="387.63358"
         x="8.297966"
         y="21.337626" />
    </clipPath>
  </defs>
  <sodipodi:namedview
     pagecolor="#ffffff"
     bordercolor="#666666"
     borderopacity="1"
     objecttolerance="10"
     gridtolerance="10"
     guidetolerance="10"
     inkscape:pageopacity="0"
     inkscape:pageshadow="2"
     inkscape:window-width="1920"
     inkscape:window-height="1050"
     id="namedview4"
     showgrid="true"
     units="mm"
     inkscape:document-units="mm"
     inkscape:snap-global="true"
     inkscape:zoom="2.5192325"
     inkscape:cx="232.60304"
     inkscape:cy="923.60186"
     inkscape:window-x="0"
     inkscape:window-y="0"
     inkscape:window-maximized="1"
     inkscape:current-layer="g878"
     inkscape:snap-object-midpoints="true">
    <inkscape:grid
       type="xygrid"
       id="grid12"
       spacingx="3.7795275"
       spacingy="3.7795275"
       enabled="true"
       visible="true"
       snapvisiblegridlinesonly="false" />
    <inkscape:grid
       type="xygrid"
       id="grid838"
       visible="false"
       snapvisiblegridlinesonly="false" />
  </sodipodi:namedview>
  <image
     sodipodi:absref="/home/src/github/fablabnbg/tronxy-xy100/parts/orig/scan300dpi/png/startt0001.png"
     xlink:href="png/startt0001.png"
     sodipodi:insensitive="true"
     clip-path="url(#clipPath29)"
     y="-1.2573317"
     x="2.933774"
     id="image10"
     preserveAspectRatio="none"
     height="1119.04"
     width="813.44"
     transform="rotate(-0.18276653,-3119.2952,-7.3662261)" />
  <g
     id="g878">
    <path
       id="rect10"
       d="m 49.134766,22.976562 c -16.750867,2e-6 -30.236329,13.485462 -30.236328,30.236329 V 340.45703 c 0,16.75087 13.485461,30.23633 30.236328,30.23633 h 22.675781 c 16.750866,0 30.236333,-13.48546 30.236333,-30.23633 v -56.69336 -22.67578 c 0,-4.18772 3.37087,-7.56055 7.55859,-7.56055 h 241.89062 c 4.18772,0 7.5586,3.37283 7.5586,7.56055 v 22.67578 56.69336 c 0,16.75086 13.48547,30.23633 30.23633,30.23633 h 41.57421 c 16.75086,0 30.23633,-13.48547 30.23633,-30.23633 V 204.39453 53.212891 c 0,-16.750857 -13.48547,-30.236329 -30.23633,-30.236329 H 317.48047 c -16.75086,0 -30.23633,13.485472 -30.23633,30.236329 v 56.693359 11.33789 11.33984 c 0,4.18772 -3.37088,7.5586 -7.55859,7.5586 H 109.60547 c -4.18772,0 -7.55859,-3.37088 -7.55859,-7.5586 V 121.24414 109.90625 53.212891 c 0,-16.750867 -13.485467,-30.236328 -30.236333,-30.236329 z"
       style="opacity:0.9;fill:#ffff00;fill-opacity:0.53082192;stroke:#ff0000;stroke-width:0.75590551;stroke-linecap:square;stroke-linejoin:miter;stroke-miterlimit:4;stroke-dasharray:none;stroke-opacity:1"
       inkscape:connector-curvature="0" />
    <circle
       r="7.5590553"
       cy="45.654217"
       cx="40.78091"
       id="path830"
       style="opacity:0.9;fill:#ffff00;fill-opacity:0.53082192;stroke:#ff0000;stroke-width:0.75590551;stroke-linecap:square;stroke-linejoin:miter;stroke-miterlimit:4;stroke-dasharray:none;stroke-opacity:1" />
    <circle
       style="opacity:0.9;fill:#ffff00;fill-opacity:0.53082192;stroke:#ff0000;stroke-width:0.75590551;stroke-linecap:square;stroke-linejoin:miter;stroke-miterlimit:4;stroke-dasharray:none;stroke-opacity:1"
       id="circle832"
       cx="67.086609"
       cy="146.75656"
       r="8.5039358" />
    <circle
       cy="214.7881"
       cx="67.086617"
       id="circle834"
       style="opacity:0.9;fill:#ffff00;fill-opacity:0.53082192;stroke:#ff0000;stroke-width:0.75590551;stroke-linecap:square;stroke-linejoin:miter;stroke-miterlimit:4;stroke-dasharray:none;stroke-opacity:1"
       r="8.5039368" />
    <circle
       style="opacity:0.9;fill:#ffff00;fill-opacity:0.53082192;stroke:#ff0000;stroke-width:0.75590551;stroke-linecap:square;stroke-linejoin:miter;stroke-miterlimit:4;stroke-dasharray:none;stroke-opacity:1"
       id="circle836"
       cx="157.00139"
       cy="214.78807"
       r="8.5039358" />
    <circle
       r="7.5590553"
       cy="348.01642"
       cx="42.670673"
       id="circle840"
       style="opacity:0.9;fill:#ffff00;fill-opacity:0.53082192;stroke:#ff0000;stroke-width:0.75590551;stroke-linecap:square;stroke-linejoin:miter;stroke-miterlimit:4;stroke-dasharray:none;stroke-opacity:1" />
    <circle
       style="opacity:0.9;fill:#ffff00;fill-opacity:0.53082192;stroke:#ff0000;stroke-width:0.75590551;stroke-linecap:square;stroke-linejoin:miter;stroke-miterlimit:4;stroke-dasharray:none;stroke-opacity:1"
       id="circle842"
       cx="303.60904"
       cy="177.38974"
       r="8.5039358" />
    <circle
       r="8.5039358"
       cy="130.14563"
       cx="303.60904"
       id="circle844"
       style="opacity:0.9;fill:#ffff00;fill-opacity:0.53082192;stroke:#ff0000;stroke-width:0.75590551;stroke-linecap:square;stroke-linejoin:miter;stroke-miterlimit:4;stroke-dasharray:none;stroke-opacity:1" />
    <circle
       style="opacity:0.9;fill:#ffff00;fill-opacity:0.53082192;stroke:#ff0000;stroke-width:0.75590551;stroke-linecap:square;stroke-linejoin:miter;stroke-miterlimit:4;stroke-dasharray:none;stroke-opacity:1"
       id="circle846"
       cx="303.60904"
       cy="62.114155"
       r="8.5039358" />
    <circle
       r="8.5039358"
       cy="62.114155"
       cx="394.31772"
       id="circle848"
       style="opacity:0.9;fill:#ffff00;fill-opacity:0.53082192;stroke:#ff0000;stroke-width:0.75590551;stroke-linecap:square;stroke-linejoin:miter;stroke-miterlimit:4;stroke-dasharray:none;stroke-opacity:1" />
    <circle
       style="opacity:0.9;fill:#ffff00;fill-opacity:0.53082192;stroke:#ff0000;stroke-width:0.75590551;stroke-linecap:square;stroke-linejoin:miter;stroke-miterlimit:4;stroke-dasharray:none;stroke-opacity:1"
       id="circle850"
       cx="394.31772"
       cy="177.38974"
       r="8.5039358" />
    <circle
       r="8.5039358"
       cy="245.42123"
       cx="394.31772"
       id="circle852"
       style="opacity:0.9;fill:#ffff00;fill-opacity:0.53082192;stroke:#ff0000;stroke-width:0.75590551;stroke-linecap:square;stroke-linejoin:miter;stroke-miterlimit:4;stroke-dasharray:none;stroke-opacity:1" />
    <circle
       style="opacity:0.9;fill:#ffff00;fill-opacity:0.53082192;stroke:#ff0000;stroke-width:0.75590551;stroke-linecap:square;stroke-linejoin:miter;stroke-miterlimit:4;stroke-dasharray:none;stroke-opacity:1"
       id="circle854"
       cx="440.31494"
       cy="348.01642"
       r="7.5590553" />
    <circle
       r="7.5590553"
       cy="44.352512"
       cx="440.31494"
       id="circle856"
       style="opacity:0.9;fill:#ffff00;fill-opacity:0.53082192;stroke:#ff0000;stroke-width:0.75590551;stroke-linecap:square;stroke-linejoin:miter;stroke-miterlimit:4;stroke-dasharray:none;stroke-opacity:1" />
    <rect
       rx="0"
       ry="0"
       y="160.92981"
       x="217.32283"
       height="7.5590553"
       width="24.566931"
       id="rect858"
       style="opacity:0.9;fill:#ffff00;fill-opacity:0.53082192;stroke:#ff0000;stroke-width:0.75590551;stroke-linecap:square;stroke-linejoin:miter;stroke-miterlimit:4;stroke-dasharray:none;stroke-opacity:1" />
    <rect
       style="opacity:0.9;fill:#ffff00;fill-opacity:0.53082192;stroke:#ff0000;stroke-width:0.75590551;stroke-linecap:square;stroke-linejoin:miter;stroke-miterlimit:4;stroke-dasharray:none;stroke-opacity:1"
       id="rect860"
       width="24.566931"
       height="7.5590553"
       x="218.26772"
       y="223.29201"
       ry="0"
       rx="0" />
  </g>
</svg>

<?xml version="1.0" encoding="UTF-8" standalone="no"?>
<!-- Created with Inkscape (http://www.inkscape.org/) -->

<svg
   xmlns:dc="http://purl.org/dc/elements/1.1/"
   xmlns:cc="http://creativecommons.org/ns#"
   xmlns:rdf="http://www.w3.org/1999/02/22-rdf-syntax-ns#"
   xmlns:svg="http://www.w3.org/2000/svg"
   xmlns="http://www.w3.org/2000/svg"
   xmlns:xlink="http://www.w3.org/1999/xlink"
   xmlns:sodipodi="http://sodipodi.sourceforge.net/DTD/sodipodi-0.dtd"
   xmlns:inkscape="http://www.inkscape.org/namespaces/inkscape"
   version="1.1"
   id="svg2"
   width="215.22267mm"
   height="296.07935mm"
   viewBox="0 0 813.44 1119.04"
   sodipodi:docname="startt0001a.svg"
   inkscape:version="0.92.1 unknown">
  <metadata
     id="metadata8">
    <rdf:RDF>
      <cc:Work
         rdf:about="">
        <dc:format>image/svg+xml</dc:format>
        <dc:type
           rdf:resource="http://purl.org/dc/dcmitype/StillImage" />
        <dc:title></dc:title>
      </cc:Work>
    </rdf:RDF>
  </metadata>
  <defs
     id="defs6">
    <clipPath
       clipPathUnits="userSpaceOnUse"
       id="clipPath29">
      <rect
         style="opacity:0.9;fill:#ffff00;fill-opacity:0.53082192;stroke:#0000ff;stroke-width:0.75590551;stroke-linecap:square;stroke-linejoin:miter;stroke-miterlimit:4;stroke-dasharray:none;stroke-opacity:1"
         id="rect31"
         width="482.46753"
         height="387.63358"
         x="8.297966"
         y="21.337626" />
    </clipPath>
  </defs>
  <sodipodi:namedview
     pagecolor="#ffffff"
     bordercolor="#666666"
     borderopacity="1"
     objecttolerance="10"
     gridtolerance="10"
     guidetolerance="10"
     inkscape:pageopacity="0"
     inkscape:pageshadow="2"
     inkscape:window-width="1920"
     inkscape:window-height="1050"
     id="namedview4"
     showgrid="true"
     units="mm"
     inkscape:document-units="mm"
     inkscape:snap-global="true"
     inkscape:zoom="1.7813664"
     inkscape:cx="208.04261"
     inkscape:cy="924.72459"
     inkscape:window-x="25"
     inkscape:window-y="0"
     inkscape:window-maximized="1"
     inkscape:current-layer="svg2"
     inkscape:snap-object-midpoints="true">
    <inkscape:grid
       type="xygrid"
       id="grid12"
       spacingx="3.7795275"
       spacingy="3.7795275"
       enabled="true"
       visible="true"
       snapvisiblegridlinesonly="false" />
    <inkscape:grid
       type="xygrid"
       id="grid838"
       visible="false"
       snapvisiblegridlinesonly="false" />
  </sodipodi:namedview>
  <image
     sodipodi:absref="/home/src/github/fablabnbg/tronxy-xy100/parts/orig/scan300dpi/png/startt0001.png"
     xlink:href="png/startt0001.png"
     transform="rotate(-0.18276653,-3119.2952,-7.3662049)"
     width="813.44"
     height="1119.04"
     preserveAspectRatio="none"
     id="image10"
     x="2.933774"
     y="-1.2573317"
     clip-path="url(#clipPath29)" />
  <g
     id="g878">
    <path
       id="rect10"
       d="M 49.134766 22.976562 C 32.383899 22.976564 18.898437 36.462024 18.898438 53.212891 L 18.898438 340.45703 C 18.898438 357.2079 32.383899 370.69336 49.134766 370.69336 L 71.810547 370.69336 C 88.561413 370.69336 102.04688 357.2079 102.04688 340.45703 L 102.04688 283.76367 L 102.04688 261.08789 C 102.04688 256.90017 105.41775 253.52734 109.60547 253.52734 L 351.49609 253.52734 C 355.68381 253.52734 359.05469 256.90017 359.05469 261.08789 L 359.05469 283.76367 L 359.05469 340.45703 C 359.05469 357.20789 372.54016 370.69336 389.29102 370.69336 L 430.86523 370.69336 C 447.61609 370.69336 461.10156 357.20789 461.10156 340.45703 L 461.10156 204.39453 L 461.10156 53.212891 C 461.10156 36.462034 447.61609 22.976562 430.86523 22.976562 L 317.48047 22.976562 C 300.72961 22.976562 287.24414 36.462034 287.24414 53.212891 L 287.24414 109.90625 L 287.24414 121.24414 L 287.24414 132.58398 C 287.24414 136.7717 283.87326 140.14258 279.68555 140.14258 L 109.60547 140.14258 C 105.41775 140.14258 102.04688 136.7717 102.04688 132.58398 L 102.04688 121.24414 L 102.04688 109.90625 L 102.04688 53.212891 C 102.04688 36.462024 88.561413 22.976563 71.810547 22.976562 L 49.134766 22.976562 z "
       style="opacity:0.9;fill:#ffff00;fill-opacity:0.53082192;stroke:#ff0000;stroke-width:0.75590551;stroke-linecap:square;stroke-linejoin:miter;stroke-miterlimit:4;stroke-dasharray:none;stroke-opacity:1" />
    <circle
       r="7.5590553"
       cy="45.654217"
       cx="41.574802"
       id="path830"
       style="opacity:0.9;fill:#ffff00;fill-opacity:0.53082192;stroke:#ff0000;stroke-width:0.75590551;stroke-linecap:square;stroke-linejoin:miter;stroke-miterlimit:4;stroke-dasharray:none;stroke-opacity:1" />
    <circle
       style="opacity:0.9;fill:#ffff00;fill-opacity:0.53082192;stroke:#ff0000;stroke-width:0.75590551;stroke-linecap:square;stroke-linejoin:miter;stroke-miterlimit:4;stroke-dasharray:none;stroke-opacity:1"
       id="circle832"
       cx="66.141731"
       cy="147.70146"
       r="7.5590553" />
    <circle
       r="7.5590553"
       cy="215.73296"
       cx="66.141731"
       id="circle834"
       style="opacity:0.9;fill:#ffff00;fill-opacity:0.53082192;stroke:#ff0000;stroke-width:0.75590551;stroke-linecap:square;stroke-linejoin:miter;stroke-miterlimit:4;stroke-dasharray:none;stroke-opacity:1" />
    <circle
       style="opacity:0.9;fill:#ffff00;fill-opacity:0.53082192;stroke:#ff0000;stroke-width:0.75590551;stroke-linecap:square;stroke-linejoin:miter;stroke-miterlimit:4;stroke-dasharray:none;stroke-opacity:1"
       id="circle836"
       cx="156.85039"
       cy="215.73296"
       r="7.5590553" />
    <circle
       r="7.5590553"
       cy="348.01642"
       cx="43.464565"
       id="circle840"
       style="opacity:0.9;fill:#ffff00;fill-opacity:0.53082192;stroke:#ff0000;stroke-width:0.75590551;stroke-linecap:square;stroke-linejoin:miter;stroke-miterlimit:4;stroke-dasharray:none;stroke-opacity:1" />
    <circle
       style="opacity:0.9;fill:#ffff00;fill-opacity:0.53082192;stroke:#ff0000;stroke-width:0.75590551;stroke-linecap:square;stroke-linejoin:miter;stroke-miterlimit:4;stroke-dasharray:none;stroke-opacity:1"
       id="circle842"
       cx="304.25195"
       cy="177.93768"
       r="7.5590553" />
    <circle
       r="7.5590553"
       cy="130.69359"
       cx="304.25195"
       id="circle844"
       style="opacity:0.9;fill:#ffff00;fill-opacity:0.53082192;stroke:#ff0000;stroke-width:0.75590551;stroke-linecap:square;stroke-linejoin:miter;stroke-miterlimit:4;stroke-dasharray:none;stroke-opacity:1" />
    <circle
       style="opacity:0.9;fill:#ffff00;fill-opacity:0.53082192;stroke:#ff0000;stroke-width:0.75590551;stroke-linecap:square;stroke-linejoin:miter;stroke-miterlimit:4;stroke-dasharray:none;stroke-opacity:1"
       id="circle846"
       cx="304.25195"
       cy="62.662094"
       r="7.5590553" />
    <circle
       r="7.5590553"
       cy="62.662094"
       cx="394.96063"
       id="circle848"
       style="opacity:0.9;fill:#ffff00;fill-opacity:0.53082192;stroke:#ff0000;stroke-width:0.75590551;stroke-linecap:square;stroke-linejoin:miter;stroke-miterlimit:4;stroke-dasharray:none;stroke-opacity:1" />
    <circle
       style="opacity:0.9;fill:#ffff00;fill-opacity:0.53082192;stroke:#ff0000;stroke-width:0.75590551;stroke-linecap:square;stroke-linejoin:miter;stroke-miterlimit:4;stroke-dasharray:none;stroke-opacity:1"
       id="circle850"
       cx="394.96063"
       cy="177.93768"
       r="7.5590553" />
    <circle
       r="7.5590553"
       cy="245.96918"
       cx="394.96063"
       id="circle852"
       style="opacity:0.9;fill:#ffff00;fill-opacity:0.53082192;stroke:#ff0000;stroke-width:0.75590551;stroke-linecap:square;stroke-linejoin:miter;stroke-miterlimit:4;stroke-dasharray:none;stroke-opacity:1" />
    <circle
       style="opacity:0.9;fill:#ffff00;fill-opacity:0.53082192;stroke:#ff0000;stroke-width:0.75590551;stroke-linecap:square;stroke-linejoin:miter;stroke-miterlimit:4;stroke-dasharray:none;stroke-opacity:1"
       id="circle854"
       cx="440.31494"
       cy="348.01642"
       r="7.5590553" />
    <circle
       r="7.5590553"
       cy="44.352512"
       cx="439.12411"
       id="circle856"
       style="opacity:0.9;fill:#ffff00;fill-opacity:0.53082192;stroke:#ff0000;stroke-width:0.75590551;stroke-linecap:square;stroke-linejoin:miter;stroke-miterlimit:4;stroke-dasharray:none;stroke-opacity:1" />
    <rect
       rx="0"
       ry="0"
       y="160.92981"
       x="217.32283"
       height="7.5590553"
       width="24.566931"
       id="rect858"
       style="opacity:0.9;fill:#ffff00;fill-opacity:0.53082192;stroke:#ff0000;stroke-width:0.75590551;stroke-linecap:square;stroke-linejoin:miter;stroke-miterlimit:4;stroke-dasharray:none;stroke-opacity:1" />
    <rect
       style="opacity:0.9;fill:#ffff00;fill-opacity:0.53082192;stroke:#ff0000;stroke-width:0.75590551;stroke-linecap:square;stroke-linejoin:miter;stroke-miterlimit:4;stroke-dasharray:none;stroke-opacity:1"
       id="rect860"
       width="24.566931"
       height="7.5590553"
       x="218.26772"
       y="223.29201"
       ry="0"
       rx="0" />
  </g>
</svg>
